assets/icon-check-mark.svg

<svg
  class="icon icon-accordion icon-check-mark"
  aria-hidden="true"
  focusable="false"
  xmlns="http://www.w3.org/2000/svg"
  width="20"
  height="20"
  viewBox="0 0 20 20"
>
  <path d="M18.5 1.5H1.5L1.5 18.5H18.5V1.5ZM1.5 0.5C0.947715 0.5 0.5 0.947715 0.5 1.5V18.5C0.5 19.0523 0.947715 19.5 1.5 19.5H18.5C19.0523 19.5 19.5 19.0523 19.5 18.5V1.5C19.5 0.947715 19.0523 0.5 18.5 0.5H1.5Z" fill-rule="evenodd"/>
  <path d="M14.9975 6.09084C15.201 6.27746 15.2147 6.59375 15.0281 6.79728L8.91631 13.4627C8.82231 13.5652 8.68987 13.6239 8.55079 13.6247C8.41172 13.6256 8.27857 13.5684 8.18335 13.4671L4.99513 10.0731C4.80606 9.87179 4.81596 9.55536 5.01723 9.3663C5.21849 9.17723 5.53492 9.18713 5.72399 9.3884L8.54335 12.3897L14.291 6.12145C14.4776 5.91791 14.7939 5.90421 14.9975 6.09084Z"/>
</svg>

<svg xmlns="http://www.w3.org/2000/svg" class="icon icon-accordion icon-check-mark" viewBox="0 0 20 20"><path fill-rule="evenodd" d="M18.5 1.5h-17v17h17zm-17-1a1 1 0 0 0-1 1v17a1 1 0 0 0 1 1h17a1 1 0 0 0 1-1v-17a1 1 0 0 0-1-1z"/><path d="M14.998 6.09a.5.5 0 0 1 .03.707l-6.112 6.666a.5.5 0 0 1-.733.004l-3.188-3.394a.5.5 0 0 1 .729-.685l2.82 3.002 5.746-6.27a.5.5 0 0 1 .707-.03"/></svg>
